public/logo.svg

<svg fill="none" height="141" viewBox="0 0 468 141" width="468" xmlns="http://www.w3.org/2000/svg" xmlns:xlink="http://www.w3.org/1999/xlink"><linearGradient id="a" gradientUnits="userSpaceOnUse" x1=".04" x2="293.09" y1="70.16" y2="70.16"><stop offset=".03" stop-color="#f26a4b"/><stop offset=".95" stop-color="#d94141"/></linearGradient><g fill="#130101"><path d="m251.74 88.662h-3.74v-11.458h3.74c1.711 0 3.111.527 4.199 1.581s1.632 2.3857 1.632 3.995c0 1.7567-.527 3.179-1.581 4.267-1.054 1.0767-2.471 1.615-4.25 1.615zm-.068-9.656h-1.479v7.871h1.513c1.201 0 2.114-.3683 2.737-1.105.623-.748.935-1.7453.935-2.992 0-1.0993-.334-2.0003-1.003-2.703-.657-.714-1.558-1.071-2.703-1.071z"/><path d="m266.595 88.662h-2.142v-11.458h2.142z"/><path d="m283.48 87.676c-1.043.748-2.346 1.122-3.91 1.122-1.814 0-3.281-.527-4.403-1.581-1.111-1.054-1.666-2.4877-1.666-4.301 0-1.768.572-3.196 1.717-4.284 1.156-1.088 2.612-1.632 4.369-1.632 1.303 0 2.419.2437 3.349.731v2.193c-1.043-.6233-2.148-.935-3.315-.935-1.145 0-2.069.357-2.771 1.071-.703.714-1.054 1.666-1.054 2.856 0 1.2127.34 2.1703 1.02 2.873.691.6913 1.637 1.037 2.839 1.037.589 0 1.161-.102 1.717-.306v-2.703h-2.108v-1.836h4.216v5.508h-.017z"/><path d="m292.87 88.662h-2.142v-11.458h2.142z"/><path d="m307.459 78.972h-2.907v9.69h-2.159v-9.69h-2.907v-1.768h7.973z"/><path d="m316.972 83.817-.153.493h3.23l-.153-.51c-.386-1.224-.703-2.2497-.952-3.077-.238-.8387-.386-1.3657-.442-1.581l-.068-.34c-.102.5667-.59 2.2383-1.462 5.015zm-1.53 4.845h-2.244l3.876-11.458h2.771l3.876 11.458h-2.312l-.816-2.601h-4.335z"/><path d="m336.825 88.662h-6.613v-11.458h2.142v9.554h4.471z"/><path d="m361.873 87.676c-1.043.748-2.346 1.122-3.91 1.122-1.814 0-3.281-.527-4.403-1.581-1.111-1.054-1.666-2.4877-1.666-4.301 0-1.768.572-3.196 1.717-4.284 1.156-1.088 2.612-1.632 4.369-1.632 1.303 0 2.419.2437 3.349.731v2.193c-1.043-.6233-2.148-.935-3.315-.935-1.145 0-2.069.357-2.771 1.071-.703.714-1.054 1.666-1.054 2.856 0 1.2127.34 2.1703 1.02 2.873.691.6913 1.637 1.037 2.839 1.037.589 0 1.161-.102 1.717-.306v-2.703h-2.108v-1.836h4.216v5.508h-.017z"/><path d="m372.521 78.972h-1.394v3.74h1.428c.657 0 1.15-.1643 1.479-.493.329-.34.493-.8103.493-1.411 0-.5893-.176-1.0427-.527-1.36-.34-.3173-.833-.476-1.479-.476zm-1.394 9.69h-2.142v-11.458h3.536c1.303 0 2.323.3287 3.06.986.748.6573 1.122 1.5357 1.122 2.635-.011.816-.21 1.5073-.595 2.074-.385.5553-.912.969-1.581 1.241l2.941 4.522h-2.567l-2.601-4.182h-1.173z"/><path d="m394.211 82.899c0 1.768-.493 3.1903-1.479 4.267-.975 1.0767-2.284 1.615-3.927 1.615-1.644 0-2.958-.5383-3.944-1.615s-1.479-2.499-1.479-4.267c0-1.7793.487-3.2073 1.462-4.284.986-1.0767 2.3-1.615 3.944-1.615 1.666 0 2.986.5383 3.961 1.615.974 1.0653 1.462 2.4933 1.462 4.284zm-8.534 0c0 1.2013.283 2.1533.85 2.856.566.7027 1.326 1.054 2.278 1.054.963 0 1.722-.3457 2.278-1.037.555-.7027.833-1.6603.833-2.873s-.278-2.1703-.833-2.873c-.556-.7027-1.321-1.054-2.295-1.054-.964 0-1.723.3513-2.278 1.054-.556.7027-.833 1.6603-.833 2.873z"/><path d="m405.731 88.662h-2.465l-3.06-11.458h2.261l1.071 4.233c.181.7593.362 1.547.544 2.363.181.816.317 1.4393.408 1.87l.136.663c.362-1.428.804-3.06 1.326-4.896l1.156-4.063h1.734l1.173 4.063 1.36 4.93c.283-1.5753.634-3.2243 1.054-4.947l1.037-4.216h2.176l-2.924 11.458h-2.482l-1.037-3.621c-.284-.9633-.527-1.8133-.731-2.55-.193-.7367-.323-1.2297-.391-1.479l-.085-.391c-.159.7933-.556 2.2667-1.19 4.42z"/><path d="m429.327 78.972h-2.907v9.69h-2.159v-9.69h-2.907v-1.768h7.973z"/><path d="m444.789 88.662h-2.159v-4.811h-4.709v4.811h-2.142v-11.458h2.142v4.794h4.709v-4.794h2.159z"/></g><path clip-rule="evenodd" d="m232.01 31.23c0-17.9 12.94-31.23 30.54-31.23 17.59 0 30.56 13.38 30.56 31.23s-12.95 31.23-30.54 31.23c-4.992.0344-9.92-1.1281-14.37-3.39l-79.36 80.08c-.371.373-.812.669-1.297.872-.486.202-1.007.307-1.533.308-.537.01-1.071-.089-1.569-.29s-.951-.5-1.331-.88l-90.93-90.93-42.5432 42.5332c.0011.0023.0021.0045.0032.0068-.0011-.0022-.0023-.0044-.0034-.0066l-.0166.0166c1.2388 2.4263 1.8735 5.1158 1.85 7.84 0 9.2-6.67 16.09-15.74 16.09-9.06999 0-15.73-6.89-15.73-16.09s6.66001-16.09 15.73-16.09c2.9891-.0251 5.9246.7928 8.47 2.36l45.15-45.15c.3715-.3719.8127-.667 1.2983-.8683s1.0061-.3049 1.5317-.3049c.5257 0 1.0462.1036 1.5318.3049s.9267.4964 1.2982.8683l91 90.92 75.55-76.26c-3.1-2.9976-5.548-6.6025-7.191-10.5892-1.643-3.9868-2.446-8.2696-2.359-12.5808zm-224.35998 67.42c0 4.68 3.18998 8.68 8.11998 8.68s8.12-3.96 8.12-8.68-3.19-8.67-8.12-8.67-8.11998 3.99-8.11998 8.67zm235.89998-67.42c0 11.08 7.42 20.36 19 20.36 11.57 0 19.05-9.27 19.05-20.36s-7.52-20.37-19.05-20.37-19 9.29-19 20.37zm-79.08 6.17v12.73s-3.52 2.92-12.07 2.89c-2.804-.0077-5.579-.5713-8.163-1.6582-2.585-1.0869-4.929-2.6755-6.896-4.674s-3.518-4.3672-4.563-6.969c-1.046-2.6017-1.565-5.385-1.528-8.1888 0-11.61 8.6-21.49 20.72-21.49 10.22 0 15.22 6.27 15.22 6.27l7-6.87s-7.48-8.999998-22.27-8.999998c-17.62 0-31.2 13.329998-31.2 31.119998s14.01 31.12 31.63 31.12c14.62 0 22.27-7.57 22.27-7.57v-27.33h-23.82v9.62zm40.74-35.92997h-19.77v60.17997h10.32v-22.7h4.72l14.27 22.7h12l-15-23.39c8.59-2.14 13.41-9.05 13.41-18.05 0-10.99998-8-18.73997-19.95-18.73997zm-1.29 9.79997c6.62 0 10.75 3.01 10.75 8.94s-4.13 8.94-10.75 8.94h-8.16v-17.88zm150.52 52.44-18.06-45.13-18.31 45.13-23.72-62.23997h11.66l12.72 36.10997 13.67-36.10997h8.51l13.41 36.10997 13.07-36.10997h10.74zm40.73-62.23997h-10.31v60.17997h35.93v-9.8h-25.62zm51.66 60.17997h-10.31v-23.73l-20.51-36.44997h11.35l14.65 26.90997 14.7-26.90997h10.66l-20.55 36.44997z" fill="url(#a)" fill-rule="evenodd"/></svg>

<svg width="468" height="141" viewBox="0 0 468 141" fill="none" xmlns="http://www.w3.org/2000/svg">
<path d="M251.74 88.662H248V77.204H251.74C253.451 77.204 254.851 77.731 255.939 78.785C257.027 79.839 257.571 81.1707 257.571 82.78C257.571 84.5367 257.044 85.959 255.99 87.047C254.936 88.1237 253.519 88.662 251.74 88.662ZM251.672 79.006H250.193V86.877H251.706C252.907 86.877 253.82 86.5087 254.443 85.772C255.066 85.024 255.378 84.0267 255.378 82.78C255.378 81.6807 255.044 80.7797 254.375 80.077C253.718 79.363 252.817 79.006 251.672 79.006Z" fill="#130101"/>
<path d="M266.595 88.662H264.453V77.204H266.595V88.662Z" fill="#130101"/>
<path d="M283.48 87.676C282.437 88.424 281.134 88.798 279.57 88.798C277.756 88.798 276.289 88.271 275.167 87.217C274.056 86.163 273.501 84.7293 273.501 82.916C273.501 81.148 274.073 79.72 275.218 78.632C276.374 77.544 277.83 77 279.587 77C280.89 77 282.006 77.2437 282.936 77.731V79.924C281.893 79.3007 280.788 78.989 279.621 78.989C278.476 78.989 277.552 79.346 276.85 80.06C276.147 80.774 275.796 81.726 275.796 82.916C275.796 84.1287 276.136 85.0863 276.816 85.789C277.507 86.4803 278.453 86.826 279.655 86.826C280.244 86.826 280.816 86.724 281.372 86.52V83.817H279.264V81.981H283.48V87.489H283.463L283.48 87.676Z" fill="#130101"/>
<path d="M292.87 88.662H290.728V77.204H292.87V88.662Z" fill="#130101"/>
<path d="M307.459 78.972H304.552V88.662H302.393V78.972H299.486V77.204H307.459V78.972Z" fill="#130101"/>
<path d="M316.972 83.817L316.819 84.31H320.049L319.896 83.8C319.51 82.576 319.193 81.5503 318.944 80.723C318.706 79.8843 318.558 79.3573 318.502 79.142L318.434 78.802C318.332 79.3687 317.844 81.0403 316.972 83.817ZM315.442 88.662H313.198L317.074 77.204H319.845L323.721 88.662H321.409L320.593 86.061H316.258L315.442 88.662Z" fill="#130101"/>
<path d="M336.825 88.662H330.212V77.204H332.354V86.758H336.825V88.662Z" fill="#130101"/>
<path d="M361.873 87.676C360.83 88.424 359.527 88.798 357.963 88.798C356.149 88.798 354.682 88.271 353.56 87.217C352.449 86.163 351.894 84.7293 351.894 82.916C351.894 81.148 352.466 79.72 353.611 78.632C354.767 77.544 356.223 77 357.98 77C359.283 77 360.399 77.2437 361.329 77.731V79.924C360.286 79.3007 359.181 78.989 358.014 78.989C356.869 78.989 355.945 79.346 355.243 80.06C354.54 80.774 354.189 81.726 354.189 82.916C354.189 84.1287 354.529 85.0863 355.209 85.789C355.9 86.4803 356.846 86.826 358.048 86.826C358.637 86.826 359.209 86.724 359.765 86.52V83.817H357.657V81.981H361.873V87.489H361.856L361.873 87.676Z" fill="#130101"/>
<path d="M372.521 78.972H371.127V82.712H372.555C373.212 82.712 373.705 82.5477 374.034 82.219C374.363 81.879 374.527 81.4087 374.527 80.808C374.527 80.2187 374.351 79.7653 374 79.448C373.66 79.1307 373.167 78.972 372.521 78.972ZM371.127 88.662H368.985V77.204H372.521C373.824 77.204 374.844 77.5327 375.581 78.19C376.329 78.8473 376.703 79.7257 376.703 80.825C376.692 81.641 376.493 82.3323 376.108 82.899C375.723 83.4543 375.196 83.868 374.527 84.14L377.468 88.662H374.901L372.3 84.48H371.127V88.662Z" fill="#130101"/>
<path d="M394.211 82.899C394.211 84.667 393.718 86.0893 392.732 87.166C391.757 88.2427 390.448 88.781 388.805 88.781C387.161 88.781 385.847 88.2427 384.861 87.166C383.875 86.0893 383.382 84.667 383.382 82.899C383.382 81.1197 383.869 79.6917 384.844 78.615C385.83 77.5383 387.144 77 388.788 77C390.454 77 391.774 77.5383 392.749 78.615C393.723 79.6803 394.211 81.1083 394.211 82.899ZM385.677 82.899C385.677 84.1003 385.96 85.0523 386.527 85.755C387.093 86.4577 387.853 86.809 388.805 86.809C389.768 86.809 390.527 86.4633 391.083 85.772C391.638 85.0693 391.916 84.1117 391.916 82.899C391.916 81.6863 391.638 80.7287 391.083 80.026C390.527 79.3233 389.762 78.972 388.788 78.972C387.824 78.972 387.065 79.3233 386.51 80.026C385.954 80.7287 385.677 81.6863 385.677 82.899Z" fill="#130101"/>
<path d="M405.731 88.662H403.266L400.206 77.204H402.467L403.538 81.437C403.719 82.1963 403.9 82.984 404.082 83.8C404.263 84.616 404.399 85.2393 404.49 85.67L404.626 86.333C404.988 84.905 405.43 83.273 405.952 81.437L407.108 77.374H408.842L410.015 81.437L411.375 86.367C411.658 84.7917 412.009 83.1427 412.429 81.42L413.466 77.204H415.642L412.718 88.662H410.236L409.199 85.041C408.915 84.0777 408.672 83.2277 408.468 82.491C408.275 81.7543 408.145 81.2613 408.077 81.012L407.992 80.621C407.833 81.4143 407.436 82.8877 406.802 85.041L405.731 88.662Z" fill="#130101"/>
<path d="M429.327 78.972H426.42V88.662H424.261V78.972H421.354V77.204H429.327V78.972Z" fill="#130101"/>
<path d="M444.789 88.662H442.63V83.851H437.921V88.662H435.779V77.204H437.921V81.998H442.63V77.204H444.789V88.662Z" fill="#130101"/>
<path fill-rule="evenodd" clip-rule="evenodd" d="M232.01 31.23C232.01 13.33 244.95 0 262.55 0C280.14 0 293.11 13.38 293.11 31.23C293.11 49.08 280.16 62.46 262.57 62.46C257.578 62.4944 252.65 61.3319 248.2 59.07L168.84 139.15C168.469 139.523 168.028 139.819 167.543 140.022C167.057 140.224 166.536 140.329 166.01 140.33C165.473 140.34 164.939 140.241 164.441 140.04C163.943 139.839 163.49 139.54 163.11 139.16L72.18 48.23L29.6368 90.7632C29.6379 90.7655 29.6389 90.7677 29.64 90.77C29.6389 90.7678 29.6377 90.7656 29.6366 90.7634L29.62 90.78C30.8588 93.2063 31.4935 95.8958 31.47 98.62C31.47 107.82 24.8 114.71 15.73 114.71C6.66001 114.71 0 107.82 0 98.62C0 89.42 6.66001 82.53 15.73 82.53C18.7191 82.5049 21.6546 83.3228 24.2 84.89L69.35 39.74C69.7215 39.3681 70.1627 39.073 70.6483 38.8717C71.1339 38.6704 71.6544 38.5668 72.18 38.5668C72.7057 38.5668 73.2262 38.6704 73.7118 38.8717C74.1974 39.073 74.6385 39.3681 75.01 39.74L166.01 130.66L241.56 54.4C238.46 51.4024 236.012 47.7975 234.369 43.8108C232.726 39.824 231.923 35.5412 232.01 31.23ZM7.65002 98.65C7.65002 103.33 10.84 107.33 15.77 107.33C20.7 107.33 23.89 103.37 23.89 98.65C23.89 93.93 20.7 89.98 15.77 89.98C10.84 89.98 7.65002 93.97 7.65002 98.65ZM243.55 31.23C243.55 42.31 250.97 51.59 262.55 51.59C274.12 51.59 281.6 42.32 281.6 31.23C281.6 20.14 274.08 10.86 262.55 10.86C251.02 10.86 243.55 20.15 243.55 31.23ZM164.47 37.4V50.13C164.47 50.13 160.95 53.05 152.4 53.02C149.596 53.0123 146.821 52.4487 144.237 51.3618C141.652 50.2749 139.308 48.6863 137.341 46.6878C135.374 44.6893 133.823 42.3206 132.778 39.7188C131.732 37.1171 131.213 34.3338 131.25 31.53C131.25 19.92 139.85 10.04 151.97 10.04C162.19 10.04 167.19 16.31 167.19 16.31L174.19 9.44C174.19 9.44 166.71 0.440002 151.92 0.440002C134.3 0.440002 120.72 13.77 120.72 31.56C120.72 49.35 134.73 62.68 152.35 62.68C166.97 62.68 174.62 55.11 174.62 55.11V27.78H150.8V37.4H164.47ZM205.21 1.47003H185.44V61.65H195.76V38.95H200.48L214.75 61.65H226.75L211.75 38.26C220.34 36.12 225.16 29.21 225.16 20.21C225.16 9.21002 217.16 1.47003 205.21 1.47003ZM203.92 11.27C210.54 11.27 214.67 14.28 214.67 20.21C214.67 26.14 210.54 29.15 203.92 29.15H195.76V11.27H203.92ZM354.44 63.71L336.38 18.58L318.07 63.71L294.35 1.47003H306.01L318.73 37.58L332.4 1.47003H340.91L354.32 37.58L367.39 1.47003H378.13L354.44 63.71ZM395.17 1.47003H384.86V61.65H420.79V51.85H395.17V1.47003ZM446.83 61.65H436.52V37.92L416.01 1.47003H427.36L442.01 28.38L456.71 1.47003H467.37L446.82 37.92L446.83 61.65Z" fill="url(#paint0_linear_16_235)"/>
<defs>
<linearGradient id="paint0_linear_16_235" x1="0.04" y1="70.16" x2="293.09" y2="70.16" gradientUnits="userSpaceOnUse">
<stop offset="0.03" stop-color="#F26A4B"/>
<stop offset="0.95" stop-color="#D94141"/>
</linearGradient>
</defs>
</svg>
